src/core/icon/remix/tiktok-fill.svg

<svg xmlns="http://www.w3.org/2000/svg" width="24" height="24" viewBox="0 0 24 24">
    <title>tiktok-fill</title>
    <g id="tiktok-fill" stroke="none" stroke-width="1" fill="none" fill-rule="evenodd">
        <path d="M19.666,2.99999996 C20.4,2.99999996 21,3.57999996 21,4.29699997 L21,4.29699997 L21,19.703 C21,20.42 20.4,21 19.666,21 L19.666,21 L4.32799997,21 C3.59399996,21 2.99999996,20.42 2.99999996,19.703 L2.99999996,19.703 L2.99999996,4.29699997 C2.99999996,3.57999996 3.59299996,2.99999996 4.32899997,2.99999996 L4.32899997,2.99999996 Z M14.5519423,4.99999996 L12.5433651,4.99999996 L12.5223799,14.7739613 C12.5223799,15.9731347 11.4616313,16.9179078 10.2604821,16.9179078 C9.05956116,16.9179078 8.08602236,15.9459704 8.08602236,14.7470248 C8.08602236,13.5480793 9.05956116,12.5761419 10.2604821,12.5761419 C10.3504184,12.5761419 10.4363575,12.5921043 10.5237956,12.6025796 L10.5237956,12.6025796 L10.5237956,10.5065203 C10.4363575,10.5010332 10.3494191,10.4930521 10.2604821,10.4930521 C7.9074828,10.4930521 5.99999996,12.3973972 5.99999996,14.746526 C5.99999996,17.0956548 7.9074828,19 10.2604821,19 C12.6134814,19 14.5209643,17.0956548 14.5209643,14.746526 L14.5209643,14.746526 L14.5209643,8.99159121 C15.212698,10.046324 16.3904607,10.6817836 17.6532456,10.6816076 C17.7683721,10.681091 17.8834134,10.6752651 17.9980014,10.6641488 L17.9980014,10.6641488 L18,10.6641488 L18,8.33463974 C16.1936978,8.20281001 14.7413438,6.79822869 14.5519423,4.99999996 L14.5519423,4.99999996 Z" id="🎨-couleur-icône" fill="#242424"></path>
    </g>
</svg>

<svg xmlns="http://www.w3.org/2000/svg" width="24" height="24" viewBox="0 0 24 24"><path fill="currentColor" fill-rule="evenodd" d="M19.666 3C20.4 3 21 3.58 21 4.297v15.406C21 20.42 20.4 21 19.666 21H4.328C3.594 21 3 20.42 3 19.703V4.297C3 3.58 3.593 3 4.329 3Zm-5.114 2h-2.009l-.02 9.774c0 1.2-1.061 2.144-2.263 2.144-1.2 0-2.174-.972-2.174-2.171 0-1.199.974-2.17 2.174-2.17.09 0 .176.015.264.026v-2.096c-.088-.006-.175-.014-.264-.014A4.257 4.257 0 0 0 6 14.747 4.257 4.257 0 0 0 10.26 19a4.257 4.257 0 0 0 4.261-4.253V8.992a3.745 3.745 0 0 0 3.477 1.672H18v-2.33A3.739 3.739 0 0 1 14.552 5Z"/></svg>
